X:1083
T:Jack Is Yet Alive
R:reel
D:The Silver Bow
O:Shetland
Z:id:hn-reel-1083
M:C|
L:1/8
K:G
DEGB A2Ac | BdBG AGEG | DEGB A2Ac |1 BGAF G3E :|2 BGAF G2ef || 
g2ge f2fd | efge agfd | g2ge f2fd | efag f2df | 
g2ge f2fd | e2ef edB2 | g2fg e2dc | BGAF G3E || 

